www/assets/icons/dynamic_feed.svg

<svg xmlns="http://www.w3.org/2000/svg" width="24" height="24" viewBox="0 0 24 24" fill='currentColor'><path d="M8 8H6v7c0 1.1.9 2 2 2h9v-2H8z"/><path d="M20 3h-8c-1.1 0-2 .9-2 2v6c0 1.1.9 2 2 2h8c1.1 0 2-.9 2-2V5c0-1.1-.9-2-2-2m0 8h-8V7h8zM4 12H2v7c0 1.1.9 2 2 2h9v-2H4z"/></svg>

<svg width="24" height="24" viewBox="0 0 24 24" xmlns="http://www.w3.org/2000/svg" fill='currentColor'><path d="M8 8H6V15C6 16.1 6.9 17 8 17H17V15H8V8Z"/><path d="M20 3H12C10.9 3 10 3.9 10 5V11C10 12.1 10.9 13 12 13H20C21.1 13 22 12.1 22 11V5C22 3.9 21.1 3 20 3ZM20 11H12V7H20V11Z"/><path d="M4 12H2V19C2 20.1 2.9 21 4 21H13V19H4V12Z"/></svg>
